src/assets/images/storage.svg

<svg fill="none" height="20" viewBox="0 0 27 20" width="27" xmlns="http://www.w3.org/2000/svg"><g fill="#fff"><path d="m26.2108 14.9347c-.1296.7581-.344 1.4806-.7627 2.1268-1.007 1.5619-2.4277 2.432-4.2572 2.4421-5.1496.0306-10.2942.0153-15.4438.0051-2.4726 0-4.62615-1.9435-4.975106-4.4519-.413761-2.9509 1.630116-5.64751 4.526446-5.96296.18943-.02035.37887-.01526.57328-.01526 5.07478 0 10.14458.01526 15.21938-.01018 2.4078-.01017 4.6412 1.7655 5.0798 4.3501.01.0662.0299.1323.0449.1985-.005.4375-.005.8802-.005 1.3177zm-12.7368 2.7882h7.5075c.2592 0 .5134 0 .7677-.056 1.3659-.3103 2.2732-1.1498 2.6171-2.5185.334-1.333-.0249-2.5134-1.0418-3.4496-.6979-.641-1.5404-.8598-2.4577-.8598-4.7906 0-9.5813 0-14.37194 0-.32403 0-.64308.0102-.96711.0305-1.68495.1119-3.39483 1.7299-3.01098 4.0296.28415 1.6739 1.65504 2.8136 3.32006 2.8187 2.54737.0102 5.09477.0051 7.63717.0051z"/><path d="m13.4936.403616c1.999.030527 3.7388.717394 5.2094 2.101294.1695.15772.1795.25948.005.41721-.3041.28492-.5932.59019-.8823.89546-.1097.11702-.1845.12211-.3041.00509-1.2862-1.216-2.8116-1.75532-4.5514-1.61795-1.341.10176-2.5125.64616-3.49953 1.57725-.16451.15263-.25424.14754-.39881-.01018-.27916-.30527-.57826-.60037-.87737-.89038-.12961-.12719-.11964-.2086.00499-.32562 1.26122-1.20583 2.73682-1.913044 4.45162-2.106383.1396-.015264.2792-.035616.4188-.040703.1396-.010176.2841-.005088.4237-.005088z"/><path d="m13.5397 3.85938c1.0369.02543 1.989.39685 2.8066 1.13459.1246.11193.1595.19334.0199.32563-.319.31036-.6281.6258-.9322.95143-.1196.1272-.2044.11193-.329.00509-.9322-.79371-2.3181-.79371-3.2553 0-.1296.10684-.2093.12211-.329-.00509-.3041-.32563-.6131-.64107-.9322-.95143-.1396-.13229-.0997-.2137.02-.32563.7677-.7123 1.8345-1.13459 2.9312-1.13459z"/><path d="m17.755 14.2777c0 .229-.005.4579 0 .6869.005.1577-.0648.2289-.2243.2289-.4387-.0051-.8774-.0051-1.3161 0-.1595 0-.2193-.0763-.2143-.234.005-.4376.005-.8802 0-1.3178 0-.173.0648-.2442.2343-.2391.4287.0051.8624.0051 1.2911 0 .1745-.0051.2343.0814.2293.2493-.005.2035 0 .4172 0 .6258z"/><path d="m21.1454 14.3182c0 .2187-.005.4375 0 .6614 0 .1475-.0648.2137-.2094.2137-.4487 0-.8973 0-1.341 0-.1495 0-.2044-.0763-.2044-.2188 0-.4477.005-.8955 0-1.3432 0-.1577.0648-.229.2244-.229.4386.0051.8773.0051 1.316 0 .1645 0 .2194.0764.2194.2341-.01.2239-.005.4528-.005.6818z"/></g></svg>

<svg width="27" height="20" viewBox="0 0 27 20" fill="none" xmlns="http://www.w3.org/2000/svg">
<g clipPath="url(#clip0_2083_3552)">
<path d="M26.2108 14.9347C26.0812 15.6928 25.8668 16.4153 25.4481 17.0615C24.4411 18.6234 23.0204 19.4935 21.1909 19.5036C16.0413 19.5342 10.8967 19.5189 5.7471 19.5087C3.2745 19.5087 1.12095 17.5652 0.771994 15.0568C0.358233 12.1059 2.40211 9.40929 5.29844 9.09384C5.48787 9.07349 5.67731 9.07858 5.87172 9.07858C10.9465 9.07858 16.0163 9.09384 21.0911 9.0684C23.4989 9.05823 25.7323 10.8339 26.1709 13.4185C26.1809 13.4847 26.2008 13.5508 26.2158 13.617C26.2108 14.0545 26.2108 14.4972 26.2108 14.9347ZM13.474 17.7229C15.9765 17.7229 18.479 17.7229 20.9815 17.7229C21.2407 17.7229 21.4949 17.7229 21.7492 17.6669C23.1151 17.3566 24.0224 16.5171 24.3663 15.1484C24.7003 13.8154 24.3414 12.635 23.3245 11.6988C22.6266 11.0578 21.7841 10.839 20.8668 10.839C16.0762 10.839 11.2855 10.839 6.49486 10.839C6.17083 10.839 5.85178 10.8492 5.52775 10.8695C3.8428 10.9814 2.13292 12.5994 2.51677 14.8991C2.80092 16.573 4.17181 17.7127 5.83683 17.7178C8.3842 17.728 10.9316 17.7229 13.474 17.7229Z" fill="white"/>
<path d="M13.4936 0.403616C15.4926 0.434143 17.2324 1.12101 18.703 2.50491C18.8725 2.66263 18.8825 2.76439 18.708 2.92212C18.4039 3.20704 18.1148 3.51231 17.8257 3.81758C17.716 3.9346 17.6412 3.93969 17.5216 3.82267C16.2354 2.60667 14.71 2.06735 12.9702 2.20472C11.6292 2.30648 10.4577 2.85088 9.47067 3.78197C9.30616 3.9346 9.21643 3.92951 9.07186 3.77179C8.7927 3.46652 8.4936 3.17142 8.19449 2.88141C8.06488 2.75422 8.07485 2.67281 8.19948 2.55579C9.4607 1.34996 10.9363 0.642746 12.6511 0.449407C12.7907 0.434143 12.9303 0.413791 13.0699 0.408704C13.2095 0.398528 13.354 0.403616 13.4936 0.403616Z" fill="white"/>
<path d="M13.5397 3.85938C14.5766 3.88481 15.5287 4.25623 16.3463 4.99397C16.4709 5.1059 16.5058 5.18731 16.3662 5.3196C16.0472 5.62996 15.7381 5.9454 15.434 6.27103C15.3144 6.39823 15.2296 6.38296 15.105 6.27612C14.1728 5.48241 12.7869 5.48241 11.8497 6.27612C11.7201 6.38296 11.6404 6.39823 11.5207 6.27103C11.2166 5.9454 10.9076 5.62996 10.5885 5.3196C10.4489 5.18731 10.4888 5.1059 10.6085 4.99397C11.3762 4.28167 12.443 3.85938 13.5397 3.85938Z" fill="white"/>
<path d="M17.755 14.2777C17.755 14.5067 17.75 14.7356 17.755 14.9646C17.76 15.1223 17.6902 15.1935 17.5307 15.1935C17.092 15.1884 16.6533 15.1884 16.2146 15.1935C16.0551 15.1935 15.9953 15.1172 16.0003 14.9595C16.0053 14.5219 16.0053 14.0793 16.0003 13.6417C16.0003 13.4687 16.0651 13.3975 16.2346 13.4026C16.6633 13.4077 17.097 13.4077 17.5257 13.4026C17.7002 13.3975 17.76 13.484 17.755 13.6519C17.75 13.8554 17.755 14.0691 17.755 14.2777Z" fill="white"/>
<path d="M21.1454 14.3182C21.1454 14.5369 21.1404 14.7557 21.1454 14.9796C21.1454 15.1271 21.0806 15.1933 20.936 15.1933C20.4873 15.1933 20.0387 15.1933 19.595 15.1933C19.4455 15.1933 19.3906 15.117 19.3906 14.9745C19.3906 14.5268 19.3956 14.079 19.3906 13.6313C19.3906 13.4736 19.4554 13.4023 19.615 13.4023C20.0536 13.4074 20.4923 13.4074 20.931 13.4023C21.0955 13.4023 21.1504 13.4787 21.1504 13.6364C21.1404 13.8603 21.1454 14.0892 21.1454 14.3182Z" fill="white"/>
</g>
<defs>
<clipPath id="clip0_2083_3552">
<rect width="25.4937" height="19.1202" fill="white" transform="translate(0.71875 0.404297)"/>
</clipPath>
</defs>
</svg>
